tools/download-figma-icons/icons/solid/calculator.svg

<svg width="24" height="24" viewBox="0 0 24 24" fill="none" xmlns="http://www.w3.org/2000/svg">
<path fill-rule="evenodd" clip-rule="evenodd" d="M17.9998 8.62516C17.9998 9.24765 17.4973 9.75015 16.8748 9.75015H7.12493C6.50243 9.75015 5.99994 9.24765 5.99994 8.62516V4.1252C5.99994 3.50271 6.50243 3.00021 7.12493 3.00021H16.8748C17.4973 3.00021 17.9998 3.50271 17.9998 4.1252V8.62516ZM17.9998 12.9451C17.9998 13.4626 17.5873 13.8751 17.0698 13.8751H15.6824C15.1724 13.8751 14.7524 13.4626 14.7524 12.9451V12.9294C14.7524 12.4126 15.1724 12.0001 15.6824 12.0001H17.0698C17.5873 12.0001 17.9998 12.4126 17.9998 12.9294V12.9451ZM17.9998 16.4401C17.9998 16.9501 17.5798 17.3701 17.0698 17.3701H15.6824C15.1649 17.3701 14.7524 16.9501 14.7524 16.4401V16.4243C14.7524 15.9076 15.1649 15.4868 15.6824 15.4868H17.0698C17.5798 15.4868 17.9998 15.9076 17.9998 16.4243V16.4401ZM17.9998 20.0625C17.9998 20.5793 17.5798 21 17.0698 21H15.6824C15.1649 21 14.7524 20.5793 14.7524 20.0625V20.0543C14.7524 19.5375 15.1649 19.1168 15.6824 19.1168H17.0698C17.5798 19.1168 17.9998 19.5375 17.9998 20.0543V20.0625ZM13.6273 12.9451C13.6273 13.4626 13.2073 13.8751 12.6973 13.8751H11.3099C10.7924 13.8751 10.3799 13.4626 10.3799 12.9451V12.9294C10.3799 12.4126 10.7924 12.0001 11.3099 12.0001H12.6973C13.2073 12.0001 13.6273 12.4126 13.6273 12.9294V12.9451ZM13.6273 16.4401C13.6273 16.9501 13.2073 17.3701 12.6973 17.3701H11.3099C10.7924 17.3701 10.3799 16.9501 10.3799 16.4401V16.4243C10.3799 15.9076 10.7924 15.4868 11.3099 15.4868H12.6973C13.2073 15.4868 13.6273 15.9076 13.6273 16.4243V16.4401ZM13.6273 20.07C13.6273 20.5793 13.2073 21 12.6973 21H11.3099C10.7924 21 10.3799 20.5793 10.3799 20.07V20.0543C10.3799 19.5375 10.7924 19.1168 11.3099 19.1168H12.6973C13.2073 19.1168 13.6273 19.5375 13.6273 20.0543V20.07ZM9.2474 12.9451C9.2474 13.4626 8.83491 13.8751 8.31741 13.8751H6.92993C6.41993 13.8751 5.99994 13.4626 5.99994 12.9451V12.9294C5.99994 12.4126 6.41993 12.0001 6.92993 12.0001H8.31741C8.83491 12.0001 9.2474 12.4126 9.2474 12.9294V12.9451ZM9.2474 16.4401C9.2474 16.9501 8.83491 17.3701 8.31741 17.3701H6.92993C6.41993 17.3701 5.99994 16.9501 5.99994 16.4401V16.4243C5.99994 15.9076 6.41993 15.4868 6.92993 15.4868H8.31741C8.83491 15.4868 9.2474 15.9076 9.2474 16.4243V16.4401ZM9.2474 20.0625C9.2474 20.5793 8.83491 21 8.31741 21H6.92993C6.41993 21 5.99994 20.5793 5.99994 20.0625V20.0543C5.99994 19.5375 6.41993 19.1168 6.92993 19.1168H8.31741C8.83491 19.1168 9.2474 19.5375 9.2474 20.0543V20.0625ZM19.4998 0.000244138H4.49995C3.67496 0.000244138 2.99997 0.667737 2.99997 1.50023V22.5C2.99997 23.325 3.67496 24 4.49995 24H19.4998C20.3323 24 20.9998 23.325 20.9998 22.5V1.50023C20.9998 0.667737 20.3323 0.000244138 19.4998 0.000244138Z" fill="black"/>
</svg>

<svg xmlns="http://www.w3.org/2000/svg" width="24" height="24" fill="none" viewBox="0 0 24 24"><path fill="currentColor" fill-rule="evenodd" d="M18 8.625c0 .623-.503 1.125-1.125 1.125h-9.75A1.123 1.123 0 0 1 6 8.625v-4.5C6 3.503 6.502 3 7.125 3h9.75C17.497 3 18 3.503 18 4.125zm0 4.32c0 .518-.413.93-.93.93h-1.388a.93.93 0 0 1-.93-.93v-.016a.93.93 0 0 1 .93-.929h1.388c.517 0 .93.413.93.93zm0 3.495c0 .51-.42.93-.93.93h-1.388a.93.93 0 0 1-.93-.93v-.016c0-.516.413-.937.93-.937h1.388c.51 0 .93.42.93.937zm0 3.622c0 .517-.42.938-.93.938h-1.388a.93.93 0 0 1-.93-.937v-.009c0-.516.413-.937.93-.937h1.388c.51 0 .93.42.93.937zm-4.373-7.117a.93.93 0 0 1-.93.93H11.31a.925.925 0 0 1-.93-.93v-.016c0-.516.412-.929.93-.929h1.387c.51 0 .93.413.93.93zm0 3.495c0 .51-.42.93-.93.93H11.31a.93.93 0 0 1-.93-.93v-.016c0-.516.412-.937.93-.937h1.387c.51 0 .93.42.93.937zm0 3.63c0 .51-.42.93-.93.93H11.31a.93.93 0 0 1-.93-.93v-.016c0-.516.412-.937.93-.937h1.387c.51 0 .93.42.93.937zm-4.38-7.125c0 .518-.412.93-.93.93H6.93a.93.93 0 0 1-.93-.93v-.016A.93.93 0 0 1 6.93 12h1.387c.518 0 .93.413.93.93zm0 3.495a.93.93 0 0 1-.93.93H6.93c-.51 0-.93-.42-.93-.93v-.016c0-.516.42-.937.93-.937h1.387c.518 0 .93.42.93.937zm0 3.622a.93.93 0 0 1-.93.938H6.93c-.51 0-.93-.42-.93-.937v-.009c0-.516.42-.937.93-.937h1.387c.518 0 .93.42.93.937zM19.5 0h-15A1.5 1.5 0 0 0 3 1.5v21c0 .825.675 1.5 1.5 1.5h15a1.5 1.5 0 0 0 1.5-1.5v-21c0-.832-.668-1.5-1.5-1.5" clip-rule="evenodd"/></svg>
